!!!!SEGMENT: pl-kk--kk-i-382--043-005_singenberger-johann-baptist--msza-na-czesc-sw-stanislawa-benedictus.krn
!!!cenid: 18xx:1541
!!!COM: Singenberger, Johann Baptist
!!!COM-rismid: pe30008527
!!!CDT: 1848-1924
!!!CNT:
!!!OPR: Msza na cześć św. Stanisława
!!!OTL: Benedictus
!!!OMV: 005
!!!PDT:
!!!AGN: Sacred; Mass
!!!SMS-siglum: PL-Kk
!!!SMS-shelfmark: Kk.I.382
!!!SMS-shelfwork: 029-005 M
!!!SMS-variant:
!!!SMS-altvar:
!!!NIFC-rismid: 1001140237
!!!URL-scan: http://repozytorium.nifc.pl/skany/pl-kk-nut--i-382
!!!ONB-nifc: UWAGA: obsada: S/T 1. Skan 0034-0035,0138, 0286 (Agnus). Osobne części Mszy: Kyrie, Gloria, Credo, Sanctus, Benedictus, Agnus Dei
**kern	**text	**dynam	**kern	**text	**dynam	**kern	**text	**dynam
*part3	*part3	*part3	*part2	*part2	*part2	*part1	*part1	*part1
*staff3	*staff3	*	*staff2	*staff2	*	*staff1	*staff1	*
*I"Basso	*	*	*I"Tenore II	*	*	*I"Tenore I	*	*
*I'B	*	*	*I'T 2	*	*	*I'T 1	*	*
*clefF4	*	*	*clefG2	*	*	*clefG2	*	*
*k[b-e-]	*	*	*k[b-e-]	*	*	*k[b-e-]	*	*
*B-:	*	*	*B-:	*	*	*B-:	*	*
*M4/4	*	*	*M4/4	*	*	*M4/4	*	*
*met(c)	*	*	*met(c)	*	*	*met(c)	*	*
=1	=1	=1	=1	=1	=1	=1	=1	=1
*	*	*	*2\right	*	*	*2\right	*	*
!	!	!	!LO:TX:t=P:problem:partia na stronie 0137	!	!	!LO:SIC:o:s:v=all\right-global	!	!
!	!	!	!	!	!	!LO:TX:a:i:t=dolce	!	!
!LO:TX:rj:a:B:t=Adagio	!	!	!LO:TX:a:i:t=dolce	!	!	!	!	!
!LO:TX:a:t=2	!	!	!LO:TX:rj:a:B:t=Adagio.	!	!LO:DY:rj:b	!LO:TX:rj:a:B:t=Adagio	!	!LO:DY:rj:a
1r	.	.	2.b-\	Be-	p <	2b-\	Be-	p
.	.	.	.	.	.	2cc\	-ne-	.
.	.	.	4a/	-ne-	[[	.	.	.
=2	=2	=2	=2	=2	=2	=2	=2	=2
!	!	!	!	!	!LO:DY:a	!	!	!
1r	.	.	(4g/	-dic-	>	(4ee-\	-dic-	.
.	.	.	4a/)	.	.	8dd\L	.	.
.	.	.	.	.	.	8cc\J)	.	.
.	.	.	2b-\	-tus	]]	2dd\	-tus	.
=3	=3	=3	=3	=3	=3	=3	=3	=3
!LO:TX:a:i:t=dolce	!	!	!	!	!	!	!	!
!LO:TX:t=P:problem:2/left:global	!	!LO:DY:rj:b	!	!	!	!	!	!
2BB-/	Be-	p <	4r	.	.	2dd\	Be-	.
.	.	.	2b-\	be-	.	.	.	.
2C/	-ne-	[[	.	.	.	2ee-\	-ne-	.
.	.	.	8a/L	-ne-	.	.	.	.
.	.	.	8g/J	.	.	.	.	.
!	!	!	!	!	!	!LO:LB:g=original	!	!
=4	=4	=4	=4	=4	=4	=4	=4	=4
!	!	!LO:DY:a	!	!	!	!	!	!
(4D\	-dic-	>	(4f/	-dic-	.	(4ff\	-dic-	.
4E-\)	.	.	4g/)	.	.	8ee-\L	.	.
.	.	.	.	.	.	8dd\J)	.	.
!	!	!	!LO:TX:t=P:problem:2/left:global	!	!	!	!	!
4F\	-tus	.	2a/	-tus	.	2cc\	-tus	.
4FF/	qui	]]	.	.	.	.	.	.
!	!	!	!LO:PB:g=original	!	!	!	!	!
=5	=5	=5	=5	=5	=5	=5	=5	=5
*2\right	*	*	*	*	*	*	*	*
!	!	!	!LO:TX:a:t=1	!	!	!	!	!
(2F\	ve-	.	1r	.	.	2r	.	.
2E-\)	.	.	.	.	.	4r	.	.
.	.	.	.	.	.	4f/	qui	.
=6	=6	=6	=6	=6	=6	=6	=6	=6
2D\	-nit	.	4r	.	.	(2ff\	ve-	.
.	.	.	4f/	qui	.	.	.	.
2C/	qui	.	(<4g/	ve-	.	2ee-\)	.	.
.	.	.	4a/	.	.	.	.	.
=7	=7	=7	=7	=7	=7	=7	=7	=7
(2BB-/	ve-	.	2b-\	.	.	2.dd\	-nit	.
2AA-X/)	.	.	2cc\)	.	.	.	.	.
.	.	.	.	.	.	4dd\	qui	.
=8	=8	=8	=8	=8	=8	=8	=8	=8
4GG/	-nit	.	4bn\	-nit	.	(2gg\	ve-	.
!	!	!LO:DY:a	!	!	!	!	!	!
.	.	mf	.	.	.	.	.	.
4G\	qui	.	4b\	qui	.	.	.	.
(<4A\	ve-	.	(4cc\	ve-	.	2ff\)	.	.
4Bn\)	.	.	4dd\)	.	.	.	.	.
=9	=9	=9	=9	=9	=9	=9	=9	=9
2.c\	-nit	.	2cc\	-nit	.	2.ee-\	-nit	.
.	.	.	(4cc\	in	.	.	.	.
4C/	in	.	4b-\)	.	.	4ee-\	in	.
!	!	!	!	!	!	!LO:LB:g=original	!	!
=10	=10	=10	=10	=10	=10	=10	=10	=10
(2F\	no-	.	2.a/	no-	.	(2.ee-\	no-	.
2E-\)	.	.	.	.	.	.	.	.
.	.	.	4a/	-mi-	.	4cc\	.	.
!	!	!	!LO:LB:g=original	!	!	!	!	!
=11	=11	=11	=11	=11	=11	=11	=11	=11
2D\	-mi-	.	2b-\	-ne	.	2ff\)	.	.
2G\	-ne	.	[2b-\	Do-	.	4b-\	-mi-	.
.	.	.	.	.	.	4cc\	-ne	.
=12	=12	=12	=12	=12	=12	=12	=12	=12
!	!	!LO:DY:a	!	!	!	!	!	!
2F\	Do-	>	2.b-\]	.	.	2dd\	Do-	.
2F\	-mi-	]]	.	.	.	2cc\	-mi-	.
.	.	.	4a/	-mi-	.	.	.	.
!LO:PB:g=original	!	!	!	!	!	!	!	!
=	=	=	=	=	=	=	=	=
!	!	!	!LO:TX:t=P:problem:znak repetycji o jedną miarę dalej	!	!	!LO:N:vis=2	!	!
!	!	!	!LO:N:vis=2	!	!	!	!	!
4B-\	-ni	.	4b-;\	-ni	.	4b-;\	-ni	.
2B-\	-san-	.	4r	.	.	4r	.	.
.	.	.	4b-\	Ho-	.	4dd\	Ho-	.
=14	=14	=14	=14	=14	=14	=14	=14	=14
2BB-/	-na	.	4g/	-san-	.	4ee-\	-san-	.
.	.	.	4b-/	-na	.	4dd\	-na	.
4F\	in	.	4a/	in	.	4cc\	in	.
4G\	ex-	.	4b-\	ex-	.	4b-\	ex-	.
!	!	!	!	!	!	!LO:LB:g=original	!	!
=15	=15	=15	=15	=15	=15	=15	=15	=15
2F\	-cel-	.	(<4b-\	-cel-	.	2cc\	-cel-	.
.	.	.	4a/)	.	.	.	.	.
4BB-/	-sis	.	4b-\	-sis	.	4dd\	-sis	.
4B-\	Ho-	.	4b-\	Ho-	.	4dd\	Ho-	.
=16	=16	=16	=16	=16	=16	=16	=16	=16
2A^\	-san-	.	2cc\	-san-	.	2ff\	-san-	.
4A-X\	-na	.	4cc\	-na	.	4cc\	-na	.
4A-\	Ho-	.	4b-\	Ho-	.	4dd\	Ho-	.
!	!	!	!LO:LB:g=original	!	!	!	!	!
=17	=17	=17	=17	=17	=17	=17	=17	=17
2G\	-san-	.	2b-\	-san-	.	2ee-\	-san-	.
2E-\	-na	.	2g/	-na	.	2b-\	-na	.
!LO:LB:g=original	!	!	!	!	!	!	!	!
=18	=18	=18	=18	=18	=18	=18	=18	=18
4C/	in	.	4a/	in	.	4ee-\	in	.
8D\L	ex-	.	4b-/	ex-	.	4dd\	ex	.
8E-\J	.	.	.	.	.	.	.	.
([2F\	-cel-	.	(<4a/	-cel-	.	(4cc\	cel-	.
.	.	.	[4b-\	.	.	4dd\	.	.
=19	=19	=19	=19	=19	=19	=19	=19	=19
2F\]	.	.	4b-\]	.	.	1cc\)	.	.
.	.	.	8a/L	.	.	.	.	.
.	.	.	8g/J	.	.	.	.	.
2FF/)	.	.	2a/)	.	.	.	.	.
=20	=20	=20	=20	=20	=20	=20	=20	=20
1BB-/;	-sis	.	1b-\;	-sis	.	1dd\;	-sis.	.
==	==	==	==	==	==	==	==	==
*-	*-	*-	*-	*-	*-	*-	*-	*-
!!!system-decoration: [([(s1,s2)]s3)]
!!!RDF**kern: > = above
!!!RDF**kern: < = below
!!!EED: Leszek Kubiak
!!!EST: 2021-02-09
!!!ENC: Tomasz Grochalski
!!!END: 2021-01-30
